color #00ff00

span = 100

for var = 0 to 3 {
    move 20+span 20+span
    down
    move 60+span 20+span
    move 60+span 60+span
    move 20+span 60+span
    move 20+span 20+span
    up
    span = span + 100
}
