color(#ff0000)

move(200,200)
pen(down)
move(300,200)
pen(up)
halt()
color(#00ff00)
pen(down)
move(300, 300)
pen(up)

color(#0000ff)
pen(down)
move(200, 300)
pen(up)

color(#ffff00)
pen(down)
move(200, 200)
pen(up)
